frontend/src/assets/bars-solid.svg

<svg width="20" height="20" viewBox="0 0 20 20" fill="none" xmlns="http://www.w3.org/2000/svg">
<path d="M0 3.08594C0 2.2865 0.638393 1.64062 1.42857 1.64062H18.5714C19.3616 1.64062 20 2.2865 20 3.08594C20 3.88538 19.3616 4.53125 18.5714 4.53125H1.42857C0.638393 4.53125 0 3.88538 0 3.08594ZM0 10.3125C0 9.51306 0.638393 8.86719 1.42857 8.86719H18.5714C19.3616 8.86719 20 9.51306 20 10.3125C20 11.1119 19.3616 11.7578 18.5714 11.7578H1.42857C0.638393 11.7578 0 11.1119 0 10.3125ZM20 17.5391C20 18.3385 19.3616 18.9844 18.5714 18.9844H1.42857C0.638393 18.9844 0 18.3385 0 17.5391C0 16.7396 0.638393 16.0938 1.42857 16.0938H18.5714C19.3616 16.0938 20 16.7396 20 17.5391Z" fill="#767676"/>
</svg>

<svg xmlns="http://www.w3.org/2000/svg" width="20" height="20" fill="none" viewBox="0 0 20 20"><path fill="#767676" d="M0 3q.1-1.2 1.4-1.4h17.2q1.3.1 1.4 1.5-.1 1.3-1.4 1.4H1.4Q.1 4.4 0 3.1m0 7.3Q.1 9 1.4 9h17.2q1.3.1 1.4 1.4-.1 1.4-1.4 1.5H1.4Q.1 11.6 0 10.3m20 7.2q-.1 1.3-1.4 1.5H1.4Q.1 18.9 0 17.5q.1-1.3 1.4-1.4h17.2q1.3.1 1.4 1.4"/></svg>
